X:1
T:Title
%%score { ( 1 3 ) | 2 }
L:1/8
M:6/8
K:Ab
V:1 treble nm="Grand Piano"
V:3 treble 
V:2 bass 
V:1
 z3 z2[Q:1/4=100] [CE] | [CA][DB][Ec] EEE | F3 [Fd]2 [Fd] | [Ec][=D_c][E=c] BFB | B3- B2 B | %5
 [CA][DB][Ec] EEE | F3 [Fd]2 [Ec] | [=DB][DF][FA] [EG][EG][DF] | E3- E2 z/ F/ | GGG AAA | %10
 B3 E2 [Ac] | [GB][GB][GB] [_Ge][Ge][Ge] | [Fd]3- [Fd]2 [DE] | [CA][DB][Ec] EEE | F3 [Fd]2 [Af] | %15
 [Ge][GB][Bd] [Ac][Ac][DGB] | [CA]6 |[M:1/8] c |[M:3/4] cc cB BB | A3 [B,=EG]2 [B,EG] | %20
 [A,F][A,=EG] [A,FA][GB] [A,FA][A,DF] | [A,CE]4- [A,CE][EAc] | [EAc][EGd] [EAc][DGB] [DFA][D=EG] | %23
 [A,F]3 [FB]2 [FA] | G_G =GG cB | [CA]6 |] %26
V:2
 z3 z2 [A,,A,] | [A,,A,][A,,A,][A,,A,] [C,A,][C,A,][C,A,] | [D,A,D]3 [D,A,]2 [D,A,] | %3
 [A,,A,][A,,A,][A,,A,] [F,A,=D][F,B,D][F,A,D] | [E,G,E]3- [E,G,E]2 [E,G,D] | %5
 [A,,A,][A,,A,][A,,A,] [C,A,][C,A,][C,A,] | [D,A,D]3 [D,A,]2 [A,,A,] | %7
 [B,,G,][B,,B,][B,,B,] [B,,B,][B,,B,][B,,A,] | [E,G,]3- [E,G,]2 [E,G,] | %9
 [E,B,E][E,B,E][E,B,E] [E,CE][E,CE][E,CE] | [E,DE]3 [E,G,]2 [E,E] | %11
 [E,E][E,E][E,E] [C,A,][C,A,][C,A,] | [D,A,]3- [D,A,]2 [E,G,] | %13
 [A,,A,][A,,A,][A,,A,] [C,A,][C,A,][C,A,] | [D,A,D]3 [D,A,]2 [D,A,] | %15
 [E,G,][E,B,][E,E] [E,E][E,E]E, | A,,6 |[M:1/8] [A,E] | %18
[M:3/4] [A,E][A,E] [A,E][E,G,D] [E,G,D][E,G,D] | [F,A,C]3 C,2 C, | D,D, D,[D,A,] D,D, | %21
 A,,4- A,,A, | A,B, A,E, F,C, | D,3 [D,A,]2 [D,B,] | %24
 [E,B,D][E,=A,E] [E,B,E][E,B,E] [E,B,E][E,G,D] | [A,,A,]6 |] %26
V:3
 x6 | x6 | x6 | x6 | x6 | x6 | x6 | x6 | z3 z2 E | x6 | x6 | x6 | x6 | x6 | x6 | x6 | x6 | %17
[M:1/8] x |[M:3/4] x6 | x6 | x6 | x6 | x6 | x6 | x6 | x6 |] %26

